X:1
T:We're Marching to Zion
T:Text: Isaac Watts (1674-1748); ref. Robert Lowry (1826-1899) Tune: Robert Lowry (1826-1899)
T:66 88 66 Refrain MARCHING TO ZION www.hymnary.org/text/come_we_that_love_the_lord_and_let_our
T:We're Marching to Zion
T:This hymn is in the public domain.  You may freely use this score for personal and congregational worship.  If you reproduce the score, please credit Hymnary.org as the source. 
T:This hymn is in the public domain.  You may freely use this score for personal and congregational worship.  If you reproduce the score, please credit Hymnary.org as the source. 
T:This hymn is in the public domain.  You may freely use this score for personal and congregational worship.  If you reproduce the score, please credit Hymnary.org as the source. 
Z:This hymn is in the public domain.  You may freely use this score for personal and congregational worship.  If you reproduce the score, please credit Hymnary.org as the source.
%%score ( 1 2 ) 3
L:1/8
M:6/8
K:F
V:1 treble nm="Piano" snm="Pno."
V:2 treble 
V:3 bass nm="Piano" snm="Pno."
V:1
 [CF] | [FA]3 [CF]3 | (CD)[CE] [CF]2 [EG] | [FA]2 [CF] (([Ac][GB]))[FA] | [EG]3- [EG]2 | [EG] | %6
w: 3~The|hill of|Zi- * on yields a|thou- sand sa- * cred|sweets _|be-|
w: 1~Come,|we that|love _ the Lord, and|let our joys _ be|known; _|join|
w: 2~Let|those re-|fuse _ to sing who|ne- ver knew _ our|God; _|but|
 [FA]2 [FA] [FB]2 [FA] | [DG]2 [DF] D2 [CF] | [EG]2 [EG] [FA]2 [EG] | [DF]2 [=B,D] C2 C | %10
w: fore we reach the|heaven- ly fields, be-|fore we reach the|heaven- ly fields, or|
w: in a song with|sweet ac- cord, join|in a song with|sweet ac- cord and|
w: chil- dren of the|heaven- ly King, but|chil- dren of the|heaven- ly King may|
 [CF]3 [EG]3 | [FA]2 [Ac] [GB]2 [DG] | [CF]2 [CF] [CG]2 [CE] | [CF]3- [CF]2 ||"^Refrain" [FA] | %15
w: walk the|gol- den streets, or|walk the gol- den|streets. *|We're|
w: thus sur-|round the throne, and|thus sur- round the|throne. *||
w: speak their|joys a- broad, may|speak their joys a-|broad. *||
 [Ac]3 [FA]2 [FA] | [FA]3 [CF]2 z | [FA]>[CG][CF] [Fc]>[FB][FA] | [EG]3 [Ec]2 | [GB] | %20
w: march- ing to|Zi- on,|beau- ti- ful, beau- ti- ful|Zi- on;|we're|
w: |||||
w: |||||
 [FA]2 [FA] [FA][FB][Fc] | [Fd]3 (dc)[GB] | [FA]>[FA][FA] [EG]<[EG][EG] | F3- F2 |] %24
w: march- ing up- ward to|Zi- on, _ the|beau- ti- ful ci- ty of|God. *|
w: ||||
w: ||||
V:2
 x | x6 | C2 x4 | x6 | x5 | x | x6 | x3 D2 x | x6 | x3 C2 C | x6 | x6 | x6 | x5 || x | x6 | x6 | %17
 x6 | x5 | x | x6 | x3 F2 x | x6 | F3- F2 |] %24
V:3
 [F,A,] | [F,C]3 [F,,A,]3 | [C,B,]2 [C,B,] [F,A,]2 [C,C] | [F,C]2 [F,A,] [F,C]2 [F,C] | %4
 [C,C]3- [C,C]2 | [C,C] | [F,C]2 [F,C] [F,D]2 [F,C] | [B,,B,]2 [B,,B,] [B,,F,]2 [F,,A,] | %8
 [C,C]2 [C,C] [C,C]2 [C,G,] | [G,,G,]2 [G,,F,] [C,E,]2 [F,A,] | [F,A,]3 [C,C]3 | %11
 [F,C]2 [F,_E] [B,,D]2 [B,,B,] | [C,A,]2 [C,A,] [C,B,]2 [C,B,] | [F,,A,]3- [F,,A,]2 || [F,C] | %15
 [F,C]3 [F,C]2 [F,C] | [F,C]3 [F,A,]2 z | [F,C]>[F,B,][F,A,] [F,A,]>[F,D][CF] | [C,C]3 [C,G,]2 | %19
 [C,C] | [F,C]2 [F,C] [F,C][F,B,][F,A,] | [B,,B,]3 [B,,B,][A,,C][B,,D] | %22
 [C,C]>[C,C][C,C] [C,B,]<[C,B,][C,B,] | [F,,A,]3- [F,,A,]2 |] %24

